picto/metro-left-de-framed.svg

<svg class="color-immutable" width="30" height="30" viewBox="0 0 30 30" fill="none" xmlns="http://www.w3.org/2000/svg"><path d="M30 0H0V30H30V0Z" fill="#2D327D"/><path d="M25.5 3C26.325 3 27 3.675 27 4.5V25.5C27 26.325 26.325 27 25.5 27H4.5C3.675 27 3 26.325 3 25.5V4.5C3 3.675 3.675 3 4.5 3H25.5ZM25.5 2.625H4.5C3.46613 2.625 2.625 3.46613 2.625 4.5V25.5C2.625 26.5339 3.46613 27.375 4.5 27.375H25.5C26.5339 27.375 27.375 26.5339 27.375 25.5V4.5C27.375 3.46613 26.5339 2.625 25.5 2.625Z" fill="white"/><path d="M8.64237 6V8.24865H8.17632L8.19327 6.53985L7.62574 8.24865H7.23972L6.66297 6.58755L6.67992 8.24865H6.21387V6H6.91219L7.44132 7.61655L7.95027 6H8.64237Z" fill="white"/><path d="M10.5466 7.72575C10.523 7.8201 10.4804 7.90875 10.4189 7.99185C10.2713 8.19382 10.059 8.29485 9.78219 8.29485C9.53199 8.29485 9.33151 8.21587 9.18076 8.058C9.10696 7.98112 9.05056 7.88827 9.01156 7.7796C8.96949 7.66372 8.94849 7.54275 8.94849 7.4166C8.94849 7.17255 9.01876 6.9675 9.15924 6.80137C9.31614 6.61575 9.51916 6.52297 9.76831 6.52297C9.96931 6.52297 10.1405 6.585 10.2821 6.70905C10.3836 6.79822 10.4574 6.90825 10.5035 7.03897C10.5497 7.1697 10.5728 7.33402 10.5728 7.53195H9.40231C9.40644 7.614 9.41926 7.68217 9.44079 7.73655C9.50131 7.88317 9.61614 7.95652 9.78534 7.95652C9.86836 7.95652 9.93609 7.9383 9.98836 7.90192C10.0406 7.86555 10.0837 7.80682 10.1176 7.72582H10.5466V7.72575ZM10.1174 7.23202C10.1093 7.15102 10.0908 7.08382 10.0621 7.0305C10.0334 6.97822 9.99264 6.93667 9.93984 6.90592C9.88704 6.87517 9.82936 6.8598 9.76681 6.8598C9.66736 6.8598 9.58531 6.8931 9.52074 6.95977C9.45616 7.02645 9.41769 7.1172 9.40539 7.23202H10.1174Z" fill="white"/><path d="M11.714 6.56602V6.88132H11.3803V7.6704C11.3803 7.76475 11.389 7.82475 11.4064 7.85032C11.4321 7.88722 11.4895 7.90567 11.5787 7.90567C11.6136 7.90567 11.6587 7.90312 11.7141 7.89795V8.2548C11.6136 8.26605 11.5213 8.27175 11.4373 8.27175C11.3101 8.27175 11.2132 8.25742 11.1466 8.2287C11.043 8.18257 10.9784 8.0985 10.9528 7.97647C10.9415 7.9242 10.9358 7.81597 10.9358 7.65195V6.88132H10.6636V6.56602H10.9358V6.17227H11.3803V6.56602H11.714Z" fill="white"/><path d="M13.0152 6.54142V6.97365C12.9434 6.9603 12.8855 6.95362 12.8414 6.95362C12.6753 6.95362 12.5532 7.02337 12.4753 7.1628C12.4312 7.24072 12.4092 7.37092 12.4092 7.55347V8.24872H11.9631V6.5691H12.3876V6.87517C12.5086 6.64755 12.6845 6.5337 12.9152 6.5337C12.9439 6.5337 12.9772 6.53625 13.0152 6.54142Z" fill="white"/><path d="M14.0043 6.52297C14.2483 6.52297 14.4477 6.60397 14.6026 6.76597C14.7554 6.92595 14.8318 7.13925 14.8318 7.4058C14.8318 7.68165 14.7503 7.90155 14.5872 8.06565C14.4345 8.21842 14.2356 8.29485 13.9905 8.29485C13.729 8.29485 13.5208 8.20972 13.366 8.03955C13.2183 7.87755 13.1445 7.66732 13.1445 7.40895C13.1445 7.15462 13.2163 6.948 13.3599 6.78907C13.5187 6.61162 13.7335 6.52297 14.0043 6.52297ZM13.9812 6.87052C13.8633 6.87052 13.7694 6.91822 13.6997 7.01355C13.629 7.10992 13.5936 7.2417 13.5936 7.40887C13.5936 7.5822 13.6284 7.71495 13.6982 7.80727C13.77 7.90057 13.8679 7.94722 13.992 7.94722C14.1078 7.94722 14.1996 7.9047 14.2673 7.81957C14.3442 7.72522 14.3826 7.58835 14.3826 7.40887C14.3826 7.24072 14.3488 7.11 14.2811 7.0167C14.2104 6.91927 14.1104 6.87052 13.9812 6.87052Z" fill="white"/><path d="M24 23.25H6V24H24V23.25Z" fill="white"/><path d="M6 17.8439V22.1252C6 22.3323 6.16793 22.5002 6.375 22.5002H23.9986V17.5596H21.5975C21.3903 17.5596 21.2224 17.3917 21.2224 17.1848V11.6261C21.2224 11.4191 21.3903 11.2511 21.5975 11.2511H23.9986V10.5761H13.1889H7.77825C6.94042 10.5761 6.64275 11.036 6.5766 11.7548C6.57653 11.7548 6 17.7847 6 17.8439ZM19.2855 11.7542C19.2855 11.4353 19.5441 11.1767 19.8629 11.1767C20.1815 11.1767 20.4404 11.4353 20.4404 11.7542V21.1724C20.4404 21.4911 20.1815 21.7499 19.8629 21.7499C19.5441 21.7499 19.2855 21.4912 19.2855 21.1724V11.7542ZM17.3486 11.7542C17.3486 11.4353 17.6072 11.1767 17.9261 11.1767C18.2447 11.1767 18.5036 11.4353 18.5036 11.7542V21.1724C18.5036 21.4911 18.2447 21.7499 17.9261 21.7499C17.6072 21.7499 17.3486 21.4912 17.3486 21.1724V11.7542ZM12.0189 11.6261C12.0189 11.4191 12.1868 11.2511 12.3938 11.2511H16.1916C16.3988 11.2511 16.5668 11.4192 16.5668 11.6261V17.1848C16.5668 17.3917 16.3988 17.5596 16.1916 17.5596H12.3938C12.1868 17.5596 12.0188 17.3917 12.0188 17.1848V11.6261H12.0189ZM6.705 17.156L7.1454 11.6262C7.17188 11.3844 7.31333 11.2512 7.52033 11.2512H10.9843C11.1915 11.2512 11.3594 11.4193 11.3594 11.6262V17.1848C11.3594 17.3918 11.1915 17.5597 10.9843 17.5597L7.04985 17.5275C6.84285 17.5274 6.6843 17.3724 6.705 17.156Z" fill="white"/></svg>

<svg class="color-immutable" width="30" height="30" viewBox="0 0 30 30" fill="none" xmlns="http://www.w3.org/2000/svg"><g clip-path="url(#a)"><path d="M30 0H0v30h30V0Z" fill="#2D327D"/><path d="M25.5 3c.825 0 1.5.675 1.5 1.5v21c0 .825-.675 1.5-1.5 1.5h-21c-.825 0-1.5-.675-1.5-1.5v-21C3 3.675 3.675 3 4.5 3h21Zm0-.375h-21A1.877 1.877 0 0 0 2.625 4.5v21c0 1.034.841 1.875 1.875 1.875h21a1.877 1.877 0 0 0 1.875-1.875v-21A1.877 1.877 0 0 0 25.5 2.625Z" fill="#fff"/><path d="M8.642 6v2.249h-.466l.017-1.71-.567 1.71H7.24l-.577-1.661.017 1.66h-.466V6h.698l.53 1.617L7.95 6h.692ZM10.547 7.726a.751.751 0 0 1-.128.266c-.148.202-.36.303-.637.303-.25 0-.45-.08-.601-.237a.773.773 0 0 1-.17-.278 1.055 1.055 0 0 1-.063-.363c0-.244.07-.45.211-.616a.76.76 0 0 1 .61-.278.753.753 0 0 1 .735.516c.046.13.069.295.069.493h-1.17a.65.65 0 0 0 .038.205c.06.146.175.22.344.22.083 0 .151-.019.203-.055a.391.391 0 0 0 .13-.176h.429Zm-.43-.494a.537.537 0 0 0-.055-.202.338.338 0 0 0-.295-.17c-.1 0-.182.033-.246.1a.447.447 0 0 0-.116.272h.712ZM11.714 6.566v.315h-.334v.79c0 .094.009.154.026.18.026.036.083.055.173.055.035 0 .08-.003.135-.008v.357c-.1.011-.193.017-.277.017a.764.764 0 0 1-.29-.043.332.332 0 0 1-.194-.253 1.924 1.924 0 0 1-.017-.324v-.77h-.272v-.316h.272v-.394h.444v.394h.334ZM13.015 6.541v.433a.997.997 0 0 0-.174-.02.39.39 0 0 0-.366.209c-.044.078-.066.208-.066.39v.696h-.446v-1.68h.425v.306c.12-.227.296-.341.527-.341.029 0 .062.002.1.007ZM14.004 6.523c.244 0 .444.081.599.243.152.16.229.373.229.64 0 .276-.082.496-.245.66a.807.807 0 0 1-.596.229c-.262 0-.47-.085-.625-.255-.148-.162-.221-.373-.221-.631 0-.254.071-.461.215-.62.159-.177.373-.266.644-.266Zm-.023.348a.331.331 0 0 0-.281.143.656.656 0 0 0-.106.395c0 .173.034.306.104.398a.35.35 0 0 0 .294.14.333.333 0 0 0 .275-.127c.077-.095.116-.232.116-.411 0-.168-.034-.299-.102-.392a.349.349 0 0 0-.3-.146ZM24 23.25H6V24h18v-.75ZM6 17.844v4.281c0 .207.168.375.375.375h17.624v-4.94h-2.401a.375.375 0 0 1-.376-.375v-5.559c0-.207.168-.375.375-.375H24v-.675H7.779c-.839 0-1.136.46-1.202 1.179 0 0-.577 6.03-.577 6.089Zm13.285-6.09a.578.578 0 0 1 1.155 0v9.418a.578.578 0 0 1-1.155 0v-9.418Zm-1.936 0a.578.578 0 0 1 1.155 0v9.418a.578.578 0 0 1-1.155 0v-9.418Zm-5.33-.128c0-.207.168-.375.375-.375h3.798c.207 0 .375.168.375.375v5.559a.375.375 0 0 1-.375.375h-3.798a.375.375 0 0 1-.375-.375v-5.559Zm-5.314 5.53.44-5.53c.027-.242.168-.375.375-.375h3.464c.207 0 .375.168.375.375v5.559a.375.375 0 0 1-.375.375l-3.934-.032c-.207 0-.366-.156-.345-.372Z" fill="#fff"/></g><defs><clipPath id="a"><path fill="#fff" d="M0 0h30v30H0z"/></clipPath></defs></svg>
